X:0
T:Snow on the Island
M:C|
C:© Paul Gitlitz 2009
K:D
("D"DF)Ad "Bm"{Bd}B2AF|"D"DFAd "D/A"f3A|("D"DF)Ad "G"{Bd}B2AG |"D"FAEA"A"DAC2|!
("D"DF)Ad "Bm"{Bd}B2AF|("D"DF)Ad "D/A"a3f|"G"gdfd "A/E"edcB|1"A"AGFE "D"D2DD:|2"A"ABce "D"d4|!
|:"D"dafd "A"edce|"G"BAGB "F#m"c3A|"G"GdBG "D"AFDF|"A"EDEF "A"E3A| !
"D"dafd "A"edce|"G"dBGB "F#m"cAFA|"G"GBAc "D"dAFD|"A"ECB,A, "D"D4:|]
